X: 20
T:Happy Acres Two-Step
M:2/4
L:1/16
K:D
A2 d2f2||a4a2^ga|b2a2f2d2|F6A2|dcBA GFED|\
C3D E2F2|G4F2G2|{Bc}B2 A4^G2|A2A2d2f2|
a4a2^ga|b2a2f2d2|F6A2|dcBA GFED|\
C3D E2F2|G2A2B2c2|d4 d3d|d4c3d|
K:A
e4 c2A2|E3F E2D2|C2E2A2B2|c4 B2{cB}A2|\
G3A B2c2|d4c2d2|f2e4d2|c4 c3d|
e4 c2A2|E3F E2D2|C2E2A2B2|c4 B2 {cB}A2|\
G3A B2c2|d2e2f2g2|a4a3a a2A2d2f2|]
